X: 26810
T: Milliner's Daughter, The
R: reel
M: 4/4
K: Gmajor
G|~G2BG DGBG|~A2eg fdcA|~G2BG DGBG|AD~F2 ABcA|
~G2BG DGBG|.A2~g2 fd^cA|~G2BG DGBG|cAFA AGG||
B||.dg~g2 .dg~g2|.de~f2 .de~f2|.dg~g2 .dg~g2|d^cde fdcA|
dg~g2 bgad|fdd(e~f3)g|af (3.g.f.e) fdec|d^cde fdcA||

